svg/fluentui-system-icons/ic_fluent_share_16_filled.svg

<svg width="16" height="16" viewBox="0 0 16 16" fill="none" xmlns="http://www.w3.org/2000/svg">
<path d="M9.78034 2.05085C9.95188 1.96694 10.1562 1.98809 10.307 2.10533L14.807 5.60533C14.9242 5.69653 14.9949 5.83514 14.9997 5.98361C15.0046 6.13207 14.9432 6.27502 14.8322 6.37371L10.3322 10.3737C10.185 10.5045 9.9748 10.5368 9.79518 10.4561C9.61557 10.3755 9.50001 10.1969 9.50001 10V8.0563C9.2643 8.09693 8.9558 8.16679 8.59562 8.28685C7.72298 8.57773 6.54248 9.16464 5.35356 10.3536C5.20471 10.5024 4.97857 10.5421 4.78793 10.4528C4.5973 10.3635 4.48301 10.1644 4.50206 9.95474C4.64499 8.38259 5.10338 7.23727 5.72601 6.41126C6.34877 5.58508 7.11343 5.10809 7.82119 4.83704C8.41128 4.61105 8.96247 4.52766 9.36537 4.5002C9.41219 4.49701 9.45712 4.49456 9.50001 4.49274V2.5C9.50001 2.30904 9.60879 2.13475 9.78034 2.05085ZM2 5.5C2 4.11929 3.11929 3 4.5 3H6.5C6.77614 3 7 3.22386 7 3.5C7 3.77614 6.77614 4 6.5 4H4.5C3.67157 4 3 4.67157 3 5.5V11.5C3 12.3284 3.67157 13 4.5 13H10.5C11.3284 13 12 12.3284 12 11.5V10.5C12 10.2239 12.2239 10 12.5 10C12.7761 10 13 10.2239 13 10.5V11.5C13 12.8807 11.8807 14 10.5 14H4.5C3.11929 14 2 12.8807 2 11.5V5.5Z" fill="#212121"/>
</svg>

<svg xmlns="http://www.w3.org/2000/svg" width="16" height="16"><path d="M9.78 2.05a.5.5 0 0 1 .527.055l4.5 3.5a.5.5 0 0 1 .025.769l-4.5 4A.5.5 0 0 1 9.5 10V8.056c-.236.04-.544.11-.904.23-.873.292-2.054.879-3.242 2.068a.5.5 0 0 1-.852-.4c.143-1.571.601-2.717 1.224-3.543a4.693 4.693 0 0 1 2.095-1.574A5.372 5.372 0 0 1 9.5 4.493V2.5a.5.5 0 0 1 .28-.45ZM2 5.5A2.5 2.5 0 0 1 4.5 3h2a.5.5 0 0 1 0 1h-2A1.5 1.5 0 0 0 3 5.5v6A1.5 1.5 0 0 0 4.5 13h6a1.5 1.5 0 0 0 1.5-1.5v-1a.5.5 0 0 1 1 0v1a2.5 2.5 0 0 1-2.5 2.5h-6A2.5 2.5 0 0 1 2 11.5v-6Z"/></svg>
